X:1
T:Rhubarb Eruption
M:C
L:1/8
Q:205
C:(c) Greg Anderson, 20 April 1999
R:Reel
N:What the rhubarb does in the spring as it breaks through the cold soil
K:Em
B/2|e>z e>z] B^c de|d>z d>z A4|B2 Bd BG EF|GF GA B>z d>B|
e>z e>z] B^c de|d>z d>z A4|B2 Bd BG EF|GE FD E3 z/2:|
|:DE FA d2 d2|GF GA B3 B|A2 AB AG EF|GF ED B,4|DE FA d2 d2|
GF GA B3 B|1ed BA GE EF|GE FD E4:|2ed Be dB AF|GE FD E4||
